Obsidian/status/16s/weather-none-available.svg

<svg height="16" width="16" xmlns="http://www.w3.org/2000/svg"><path d="m7-18c-1.8768845 0-3.4437066 1.287639-3.875 3.03125-1.20095.18255-2.125 1.216816-2.125 2.46875 0 1.380712 1.1192881 2.5 2.5 2.5h9c1.380712 0 2.5-1.119288 2.5-2.5 0-1.208123-.860792-2.204384-2-2.4375.00065-.02096 0-.04138 0-.0625 0-1.104569-.895431-2-2-2-.379916 0-.728742.128564-1.03125.3125-.7319883-.809859-1.7911394-1.3125-2.96875-1.3125z" fill="#6e6e6e"/><path d="m7 1c-1.8768845 0-3.4437066 1.287639-3.875 3.03125-1.20095.18255-2.125 1.216816-2.125 2.46875 0 1.380712 1.1192881 2.5 2.5 2.5h9c1.380712 0 2.5-1.119288 2.5-2.5 0-1.208123-.860792-2.204384-2-2.4375.00065-.02096 0-.04138 0-.0625 0-1.104569-.895431-2-2-2-.379916 0-.728742.128564-1.03125.3125-.7319883-.809859-1.7911394-1.3125-2.96875-1.3125z" fill="#e6e6e6" opacity=".3"/><path d="m5.875 6.9999996c-.49245 0-.875.38256-.875.875v6.2500004c0 .49244.38255.875.875.875h6.25c.49245 0 .875-.38256.875-.875v-6.2500004c0-.49244-.38255-.875-.875-.875zm2.125 1h1.9999996v4.0000004h-1.9999996zm0 5.0000004h1.9999996v1h-1.9999996z" fill="#4285f4"/></svg>

<?xml version="1.0" encoding="UTF-8" standalone="no"?>
<svg
   xmlns:dc="http://purl.org/dc/elements/1.1/"
   xmlns:cc="http://creativecommons.org/ns#"
   xmlns:rdf="http://www.w3.org/1999/02/22-rdf-syntax-ns#"
   xmlns:svg="http://www.w3.org/2000/svg"
   xmlns="http://www.w3.org/2000/svg"
   xmlns:xlink="http://www.w3.org/1999/xlink"
   xmlns:sodipodi="http://sodipodi.sourceforge.net/DTD/sodipodi-0.dtd"
   xmlns:inkscape="http://www.inkscape.org/namespaces/inkscape"
   width="16"
   height="16"
   id="svg2"
   version="1.0"
   sodipodi:docname="weather-none-available.svg"
   inkscape:version="0.92.4 (unknown)">
  <sodipodi:namedview
     pagecolor="#ffffff"
     bordercolor="#666666"
     borderopacity="1"
     objecttolerance="10"
     gridtolerance="10"
     guidetolerance="10"
     inkscape:pageopacity="0"
     inkscape:pageshadow="2"
     inkscape:window-width="1920"
     inkscape:window-height="1010"
     id="namedview98"
     showgrid="false"
     inkscape:zoom="29.5"
     inkscape:cx="5.2489764"
     inkscape:cy="4.8565094"
     inkscape:window-x="0"
     inkscape:window-y="32"
     inkscape:window-maximized="1"
     inkscape:current-layer="layer1" />
  <defs
     id="defs4">
    <linearGradient
       id="linearGradient3171">
      <stop
         id="stop3173"
         offset="0"
         style="stop-color:#000000;stop-opacity:1;" />
      <stop
         id="stop3175"
         offset="1"
         style="stop-color:#000000;stop-opacity:0;" />
    </linearGradient>
    <linearGradient
       xlink:href="#linearGradient3171"
       id="linearGradient3342"
       gradientUnits="userSpaceOnUse"
       x1="4.9375"
       y1="11"
       x2="8"
       y2="11" />
    <linearGradient
       id="linearGradient3266">
      <stop
         id="stop3268"
         offset="0"
         style="stop-color:#505050;stop-opacity:1;" />
      <stop
         id="stop3270"
         offset="1"
         style="stop-color:#505050;stop-opacity:0;" />
    </linearGradient>
    <linearGradient
       xlink:href="#linearGradient3266"
       id="linearGradient3340"
       gradientUnits="userSpaceOnUse"
       gradientTransform="translate(2,0)"
       x1="3.8890872"
       y1="15.656685"
       x2="4.3288512"
       y2="12.842732" />
    <linearGradient
       xlink:href="#linearGradient3242"
       id="linearGradient3338"
       gradientUnits="userSpaceOnUse"
       x1="3.5"
       y1="14.03125"
       x2="3.5"
       y2="7.9958577" />
    <linearGradient
       id="linearGradient3242">
      <stop
         id="stop3244"
         offset="0"
         style="stop-color:#505050;stop-opacity:1;" />
      <stop
         style="stop-color:#a7a7a7;stop-opacity:1;"
         offset="0.5"
         id="stop3260" />
      <stop
         style="stop-color:#ffffff;stop-opacity:1;"
         offset="0.69999999"
         id="stop3250" />
      <stop
         id="stop3246"
         offset="1"
         style="stop-color:#c8c8c8;stop-opacity:1;" />
    </linearGradient>
    <linearGradient
       xlink:href="#linearGradient3242"
       id="linearGradient3336"
       gradientUnits="userSpaceOnUse"
       x1="7.6126604"
       y1="14.756505"
       x2="5.5251265"
       y2="7.243495" />
    <linearGradient
       id="ShadowGradient">
      <stop
         style="stop-color:#000000;stop-opacity:1;"
         offset="0"
         id="stop3393" />
      <stop
         style="stop-color:#000000;stop-opacity:0;"
         offset="1"
         id="stop3395" />
    </linearGradient>
    <linearGradient
       id="StandardGradient">
      <stop
         style="stop-color:#000000;stop-opacity:1;"
         offset="0"
         id="stop3389" />
      <stop
         style="stop-color:#646464;stop-opacity:1;"
         offset="1"
         id="stop3391" />
    </linearGradient>
    <linearGradient
       xlink:href="#StandardGradient"
       id="linearGradient3381"
       x1="9.9375"
       y1="3"
       x2="9.9375"
       y2="19.017569"
       gradientUnits="userSpaceOnUse" />
    <linearGradient
       xlink:href="#StandardGradient"
       id="linearGradient3782"
       x1="9.75"
       y1="5"
       x2="9.75"
       y2="19.055693"
       gradientUnits="userSpaceOnUse"
       gradientTransform="translate(0,-1)" />
    <linearGradient
       xlink:href="#StandardGradient"
       id="linearGradient2400"
       gradientUnits="userSpaceOnUse"
       gradientTransform="translate(-9,10)"
       x1="9.75"
       y1="5"
       x2="9.75"
       y2="19.055693" />
    <linearGradient
       xlink:href="#StandardGradient"
       id="linearGradient3174"
       gradientUnits="userSpaceOnUse"
       gradientTransform="matrix(0.7071068,0.7071068,-0.7071068,0.7071068,0.8856249,4.1536343)"
       x1="9.75"
       y1="5"
       x2="9.75"
       y2="19.055693" />
    <linearGradient
       xlink:href="#StandardGradient"
       id="linearGradient3178"
       gradientUnits="userSpaceOnUse"
       gradientTransform="matrix(0,1,-1,0,12.009822,7.0098219)"
       x1="9.75"
       y1="5"
       x2="9.75"
       y2="19.055693" />
    <linearGradient
       xlink:href="#StandardGradient"
       id="linearGradient3182"
       gradientUnits="userSpaceOnUse"
       gradientTransform="matrix(-0.7071068,0.7071068,-0.7071068,-0.7071068,17.856188,16.895447)"
       x1="9.75"
       y1="5"
       x2="9.75"
       y2="19.055693" />
    <linearGradient
       xlink:href="#StandardGradient"
       id="linearGradient3186"
       gradientUnits="userSpaceOnUse"
       gradientTransform="matrix(-1,0,0,-1,15,28.019644)"
       x1="9.75"
       y1="5"
       x2="9.75"
       y2="19.055693" />
    <linearGradient
       xlink:href="#StandardGradient"
       id="linearGradient3190"
       gradientUnits="userSpaceOnUse"
       gradientTransform="matrix(-0.7071068,-0.7071068,0.7071068,-0.7071068,5.1143752,33.866009)"
       x1="9.75"
       y1="5"
       x2="9.75"
       y2="19.055693" />
    <linearGradient
       xlink:href="#StandardGradient"
       id="linearGradient3194"
       gradientUnits="userSpaceOnUse"
       gradientTransform="matrix(0,-1,1,0,-6.0098215,31.009821)"
       x1="9.75"
       y1="5"
       x2="9.75"
       y2="19.055693" />
    <linearGradient
       xlink:href="#StandardGradient"
       id="linearGradient3198"
       gradientUnits="userSpaceOnUse"
       gradientTransform="matrix(0.7071068,-0.7071068,0.7071068,0.7071068,-11.856186,21.124197)"
       x1="9.75"
       y1="5"
       x2="9.75"
       y2="19.055693" />
    <linearGradient
       xlink:href="#StandardGradient"
       id="linearGradient3224"
       gradientUnits="userSpaceOnUse"
       gradientTransform="matrix(0.7071068,0.7071068,-0.7071068,0.7071068,11.292893,-6.263456)"
       x1="9.75"
       y1="5"
       x2="9.75"
       y2="19.055693" />
    <linearGradient
       xlink:href="#StandardGradient"
       id="linearGradient2407"
       gradientUnits="userSpaceOnUse"
       gradientTransform="translate(-22,-5)"
       x1="9.75"
       y1="5"
       x2="9.75"
       y2="19.055693" />
    <linearGradient
       xlink:href="#StandardGradient"
       id="linearGradient3228"
       x1="6.7010484"
       y1="1"
       x2="6.7010484"
       y2="15.001111"
       gradientUnits="userSpaceOnUse" />
    <linearGradient
       xlink:href="#linearGradient3171"
       id="linearGradient2630"
       gradientUnits="userSpaceOnUse"
       x1="4.9375"
       y1="11"
       x2="8"
       y2="11"
       gradientTransform="translate(4.8043455e-2,-1.0546018)" />
    <linearGradient
       xlink:href="#linearGradient3266"
       id="linearGradient2633"
       gradientUnits="userSpaceOnUse"
       gradientTransform="translate(2.0480435,-1.0546018)"
       x1="3.8890872"
       y1="15.656685"
       x2="4.3288512"
       y2="12.842732" />
    <linearGradient
       xlink:href="#linearGradient3242"
       id="linearGradient2636"
       gradientUnits="userSpaceOnUse"
       x1="3.5"
       y1="14.03125"
       x2="3.5"
       y2="7.9958577"
       gradientTransform="translate(4.8043455e-2,-1.0546018)" />
    <linearGradient
       xlink:href="#linearGradient3242"
       id="linearGradient2639"
       gradientUnits="userSpaceOnUse"
       x1="7.6126604"
       y1="14.756505"
       x2="5.5251265"
       y2="7.243495"
       gradientTransform="translate(4.8043455e-2,-1.0546018)" />
    <linearGradient
       xlink:href="#linearGradient3242"
       id="linearGradient2641"
       gradientUnits="userSpaceOnUse"
       gradientTransform="translate(-2,-2.9999999)"
       x1="7.6126604"
       y1="14.756505"
       x2="5.5251265"
       y2="7.243495" />
    <linearGradient
       xlink:href="#StandardGradient"
       id="linearGradient3421"
       x1="8.4375"
       y1="1"
       x2="8.4375"
       y2="15.007554"
       gradientUnits="userSpaceOnUse" />
    <linearGradient
       xlink:href="#StandardGradient"
       id="linearGradient2433"
       gradientUnits="userSpaceOnUse"
       x1="8.4375"
       y1="1"
       x2="8.4375"
       y2="15.007554"
       gradientTransform="matrix(1.2397314,0,0,1,-2.1450456,0)" />
    <linearGradient
       xlink:href="#StandardGradient"
       id="linearGradient2435"
       gradientUnits="userSpaceOnUse"
       x1="8.4375"
       y1="1"
       x2="8.4375"
       y2="15.007554"
       gradientTransform="matrix(1.3065009,0,0,1,-3.6644889,0)" />
    <linearGradient
       xlink:href="#StandardGradient"
       id="linearGradient2437"
       gradientUnits="userSpaceOnUse"
       x1="8.4375"
       y1="1"
       x2="8.4375"
       y2="15.007554"
       gradientTransform="matrix(1.315615,0,0,1,-4.7200494,0)" />
    <linearGradient
       xlink:href="#StandardGradient"
       id="linearGradient2898"
       gradientUnits="userSpaceOnUse"
       x1="8.4375"
       y1="1"
       x2="8.4375"
       y2="15.007554" />
    <linearGradient
       xlink:href="#linearGradient4081"
       id="linearGradient3538"
       gradientUnits="userSpaceOnUse"
       gradientTransform="translate(1,0)"
       x1="16.5"
       y1="19.542921"
       x2="16.5"
       y2="2.5" />
    <linearGradient
       id="linearGradient4081">
      <stop
         style="stop-color:#aaaaaa;stop-opacity:1;"
         offset="0"
         id="stop4083" />
      <stop
         style="stop-color:#f0f0f0;stop-opacity:1;"
         offset="1"
         id="stop4085" />
    </linearGradient>
    <linearGradient
       xlink:href="#linearGradient4081"
       id="linearGradient3542"
       gradientUnits="userSpaceOnUse"
       gradientTransform="translate(-4,-3)"
       x1="10.50519"
       y1="15.28125"
       x2="10.50519"
       y2="6.7458849" />
    <linearGradient
       id="linearGradient2926">
      <stop
         style="stop-color:#aaaaaa;stop-opacity:1;"
         offset="0"
         id="stop2928" />
      <stop
         style="stop-color:#f0f0f0;stop-opacity:1;"
         offset="1"
         id="stop2930" />
    </linearGradient>
    <linearGradient
       xlink:href="#linearGradient4081"
       id="linearGradient3540"
       gradientUnits="userSpaceOnUse"
       gradientTransform="translate(-4,-3)"
       x1="14.524625"
       y1="17.41902"
       x2="14.524625"
       y2="4.625" />
    <linearGradient
       id="linearGradient2933">
      <stop
         style="stop-color:#aaaaaa;stop-opacity:1;"
         offset="0"
         id="stop2935" />
      <stop
         style="stop-color:#f0f0f0;stop-opacity:1;"
         offset="1"
         id="stop2937" />
    </linearGradient>
    <linearGradient
       y2="2.5"
       x2="16.5"
       y1="19.542921"
       x1="16.5"
       gradientTransform="translate(-4,-3)"
       gradientUnits="userSpaceOnUse"
       id="linearGradient2942"
       xlink:href="#linearGradient4081" />
    <linearGradient
       xlink:href="#linearGradient4081"
       id="linearGradient2945"
       gradientUnits="userSpaceOnUse"
       gradientTransform="translate(-4,-3)"
       x1="16.5"
       y1="19.542921"
       x2="16.5"
       y2="2.5" />
    <linearGradient
       xlink:href="#linearGradient4081"
       id="linearGradient2948"
       gradientUnits="userSpaceOnUse"
       gradientTransform="matrix(1,0,0,0.94352368,-4,-2.3752307)"
       x1="16.5"
       y1="19.542921"
       x2="16.5"
       y2="2.5" />
    <linearGradient
       xlink:href="#StandardGradient"
       id="linearGradient2950"
       gradientUnits="userSpaceOnUse"
       x1="8.4375"
       y1="1"
       x2="8.4375"
       y2="15.007554" />
    <linearGradient
       xlink:href="#StandardGradient"
       id="linearGradient3729"
       gradientUnits="userSpaceOnUse"
       x1="8.4375"
       y1="1"
       x2="8.4375"
       y2="15.007554"
       gradientTransform="translate(0,1)" />
    <linearGradient
       xlink:href="#StandardGradient"
       id="linearGradient3731"
       gradientUnits="userSpaceOnUse"
       x1="8.4375"
       y1="1"
       x2="8.4375"
       y2="15.007554" />
    <linearGradient
       id="StandardGradient-1"
       gradientTransform="scale(1.1467263,0.8720476)"
       x1="7.1904788"
       y1="6.9551144"
       x2="7.1904788"
       y2="18.319494"
       gradientUnits="userSpaceOnUse">
      <stop
         style="stop-color:#000000;stop-opacity:0.86274511;"
         offset="0"
         id="stop3280" />
      <stop
         style="stop-color:#000000;stop-opacity:0.47058824;"
         offset="1"
         id="stop3282" />
    </linearGradient>
    <linearGradient
       y2="18.319494"
       x2="7.1904788"
       y1="6.9551144"
       x1="7.1904788"
       gradientTransform="matrix(1.1467263,0,0,0.8720476,2.5196744,8.5383193)"
       gradientUnits="userSpaceOnUse"
       id="linearGradient3785"
       xlink:href="#StandardGradient-1" />
    <linearGradient
       xlink:href="#StandardGradient-1"
       id="linearGradient3804"
       gradientUnits="userSpaceOnUse"
       x1="8.4375"
       y1="1"
       x2="8.4375"
       y2="15.007554" />
    <linearGradient
       xlink:href="#StandardGradient-1"
       id="linearGradient3808"
       gradientUnits="userSpaceOnUse"
       x1="8.4375"
       y1="1"
       x2="8.4375"
       y2="15.007554"
       gradientTransform="translate(0,1)" />
    <linearGradient
       xlink:href="#StandardGradient-1"
       id="linearGradient3812"
       gradientUnits="userSpaceOnUse"
       x1="8.4375"
       y1="1"
       x2="8.4375"
       y2="15.007554" />
    <linearGradient
       xlink:href="#StandardGradient-1"
       id="linearGradient3817"
       gradientUnits="userSpaceOnUse"
       x1="8.4375"
       y1="1"
       x2="8.4375"
       y2="15.007554"
       gradientTransform="translate(-20,0)" />
    <clipPath
       clipPathUnits="userSpaceOnUse"
       id="clipPath3824">
      <path
         style="fill:#ff00ff;fill-opacity:1;stroke:none;display:inline"
         d="m -20,0 0,16 16,0 0,-16 -16,0 z M -7.625,1 C -5.995915,2.9288438 -5,5.3432918 -5,8 c 1e-6,2.708425 -1.032388,5.178784 -2.71875,7.125 l -1.5,-1.25 c 1.364366,-1.613056 2.1875,-3.651801 2.1875,-5.875 0,-2.1639699 -0.76332,-4.1574263 -2.0625,-5.75 L -7.625,1 z M -9.8125,2.84375 C -8.662551,4.2737473 -8,6.0683029 -8,8 c 0,1.9878056 -0.722863,3.803569 -1.9375,5.25 l -1.5,-1.28125 C -10.539955,10.861821 -10,9.5005507 -10,8 -10,6.5562172 -10.506676,5.24065 -11.34375,4.15625 l 1.53125,-1.3125 z m -5.1875,1.125 0,8 L -17,10 -18.5,10 C -18.777,10 -19,9.777 -19,9.5 l 0,-3 C -19,6.223 -18.777,6 -18.5,6 l 1.5,0 2,-2.03125 z M -12.0625,4.75 C -11.393055,5.6663669 -11,6.8041149 -11,8 c 0,1.2594208 -0.420217,2.432325 -1.15625,3.375 L -13.6875,10.0625 C -13.263995,9.4700266 -13,8.7691247 -13,8 -13,7.2815285 -13.219346,6.6300346 -13.59375,6.0625 L -12.0625,4.75 z"
         id="path3826" />
    </clipPath>
    <linearGradient
       xlink:href="#StandardGradient-6"
       id="linearGradient3750"
       x1="11"
       y1="3"
       x2="11"
       y2="20.117243"
       gradientUnits="userSpaceOnUse" />
    <linearGradient
       id="StandardGradient-6"
       gradientTransform="matrix(0.9984539,0,0,0.9984539,-0.0459776,0.05767558)"
       x1="10.710332"
       y1="1.9963325"
       x2="10.710332"
       y2="18.974037"
       gradientUnits="userSpaceOnUse">
      <stop
         style="stop-color:#000000;stop-opacity:0.86274511;"
         offset="0"
         id="stop3277" />
      <stop
         style="stop-color:#000000;stop-opacity:0.47058824;"
         offset="1"
         id="stop3279" />
    </linearGradient>
    <linearGradient
       xlink:href="#StandardGradient-6"
       id="linearGradient2953"
       gradientUnits="userSpaceOnUse"
       gradientTransform="matrix(0.77744586,0,0,0.77121526,-0.55489171,-0.3761043)"
       x1="11"
       y1="3"
       x2="11"
       y2="20.117243" />
    <linearGradient
       xlink:href="#StandardGradient-6"
       id="linearGradient2955"
       gradientUnits="userSpaceOnUse"
       gradientTransform="matrix(0.77744586,0,0,0.77121526,-0.55489171,-1.3761043)"
       x1="11"
       y1="3"
       x2="11"
       y2="20.117243" />
    <linearGradient
       xlink:href="#StandardGradient-6"
       id="linearGradient3732"
       gradientUnits="userSpaceOnUse"
       gradientTransform="matrix(0.77744586,0,0,0.77121526,-0.55489171,-0.3761043)"
       x1="11"
       y1="3"
       x2="11"
       y2="20.117243" />
    <linearGradient
       xlink:href="#StandardGradient-6"
       id="linearGradient3736"
       gradientUnits="userSpaceOnUse"
       gradientTransform="matrix(0.77744586,0,0,0.77121526,-0.55489171,-1.3761043)"
       x1="11"
       y1="3"
       x2="11"
       y2="20.117243" />
    <linearGradient
       xlink:href="#StandardGradient-6"
       id="linearGradient3741"
       gradientUnits="userSpaceOnUse"
       gradientTransform="matrix(0.77744586,0,0,0.77121526,-20.554892,-1.3761043)"
       x1="11"
       y1="3"
       x2="11"
       y2="20.117243" />
    <clipPath
       clipPathUnits="userSpaceOnUse"
       id="clipPath3748">
      <path
         style="fill:#ff00ff;fill-opacity:1;stroke:none;display:inline"
         d="m -20,0 0,16 16,0 0,-16 -16,0 z M -15.5,1.46875 -12,3.9375 -8.5,1.46875 -5,3.9375 -8.5,6.625 -5,8.96875 -12,14 -19,8.96875 -15.5,6.625 -19,3.9375 -15.5,1.46875 z"
         id="path3750" />
    </clipPath>
    <clipPath
       clipPathUnits="userSpaceOnUse"
       id="clipPath3806">
      <path
         style="fill:#ff00ff;fill-opacity:1;stroke:none;display:inline"
         d="m -20,0 0,16 16,0 0,-16 -16,0 z m 14.28125,1 c 0.1826931,0 0.3653865,0.084136 0.5,0.21875 0.269228,0.269228 0.269228,0.730773 0,1 L -8.03125,5 l 0,1.53125 a 0.52760556,0.52613824 0 0 1 -0.15625,0.375 L -10.15625,8.875 a 0.52760556,0.52613824 0 0 1 -0.0625,0.03125 l -2.6875,-2.6875 a 0.52760556,0.52613824 0 0 1 0,-0.03125 0.52760556,0.52613824 0 0 1 0.03125,-0.03125 l 1.96875,-1.96875 a 0.52760556,0.52613824 0 0 1 0.375,-0.15625 l 1.53125,0 2.78125,-2.8125 C -6.084136,1.084136 -5.9014431,1 -5.71875,1 z m -8.125,6.125 a 0.52760556,0.52613824 0 0 1 0.03125,0 l 2.6875,2.6875 a 0.52760556,0.52613824 0 0 1 0,0.03125 0.52760556,0.52613824 0 0 1 -0.03125,0.03125 L -13.125,11.84375 A 0.52760556,0.52613824 0 0 1 -13.5,12 l -1.53125,0 -2.78125,2.8125 c -0.269228,0.269228 -0.730772,0.269228 -1,0 -0.269228,-0.269228 -0.269228,-0.730773 0,-1 L -16,11.03125 -16,9.5 a 0.52760556,0.52613824 0 0 1 0.15625,-0.375 L -13.875,7.15625 A 0.52760556,0.52613824 0 0 1 -13.84375,7.125 z"
         id="path3808" />
    </clipPath>
    <linearGradient
       xlink:href="#StandardGradient-6"
       id="linearGradient3849"
       gradientUnits="userSpaceOnUse"
       x1="10.973592"
       y1="1.0816979"
       x2="10.973592"
       y2="8.9478464"
       gradientTransform="translate(-20,0)" />
    <clipPath
       clipPathUnits="userSpaceOnUse"
       id="clipPath3856">
      <path
         style="fill:#ff00ff;fill-opacity:1;stroke:none;display:inline"
         d="m -20,0 0,16 16,0 0,-16 -16,0 z m 14.28125,1 c 0.1826931,0 0.3653865,0.084136 0.5,0.21875 0.269228,0.269228 0.269228,0.730773 0,1 L -8.03125,5 l 0,1.53125 a 0.52760556,0.52613824 0 0 1 -0.15625,0.375 L -10.15625,8.875 a 0.52760556,0.52613824 0 0 1 -0.0625,0.03125 l -2.6875,-2.6875 a 0.52760556,0.52613824 0 0 1 0,-0.03125 0.52760556,0.52613824 0 0 1 0.03125,-0.03125 l 1.96875,-1.96875 a 0.52760556,0.52613824 0 0 1 0.375,-0.15625 l 1.53125,0 2.78125,-2.8125 C -6.084136,1.084136 -5.9014431,1 -5.71875,1 z"
         id="path3858" />
    </clipPath>
  </defs>
  <metadata
     id="metadata7">
    <rdf:RDF>
      <cc:Work
         rdf:about="">
        <dc:format>image/svg+xml</dc:format>
        <dc:type
           rdf:resource="http://purl.org/dc/dcmitype/StillImage" />
        <dc:title />
      </cc:Work>
    </rdf:RDF>
  </metadata>
  <g
     id="layer1">
    <path
       id="path3863"
       d="m 7,-18 c -1.8768845,0 -3.4437066,1.287639 -3.875,3.03125 C 1.92405,-14.7862 1,-13.751934 1,-12.5 c 0,1.380712 1.1192881,2.5 2.5,2.5 l 9,0 c 1.380712,0 2.5,-1.119288 2.5,-2.5 0,-1.208123 -0.860792,-2.204384 -2,-2.4375 6.5e-4,-0.02096 0,-0.04138 0,-0.0625 0,-1.104569 -0.895431,-2 -2,-2 -0.379916,0 -0.728742,0.128564 -1.03125,0.3125 C 9.2367617,-17.497359 8.1776106,-18 7,-18 z"
       style="color:#000000;fill:#6e6e6e;fill-opacity:1;fill-rule:nonzero;stroke:none;stroke-width:1;marker:none;visibility:visible;display:inline;overflow:visible;enable-background:accumulate" />
    <path
       style="color:#000000;fill:#e6e6e6;fill-opacity:1;fill-rule:nonzero;stroke:none;stroke-width:1;marker:none;visibility:visible;display:inline;overflow:visible;enable-background:accumulate;opacity:0.3"
       d="M 7,1 C 5.1231155,1 3.5562934,2.287639 3.125,4.03125 1.92405,4.2138 1,5.248066 1,6.5 1,7.880712 2.1192881,9 3.5,9 l 9,0 C 13.880712,9 15,7.880712 15,6.5 15,5.291877 14.139208,4.295616 13,4.0625 13.00065,4.04154 13,4.02112 13,4 13,2.895431 12.104569,2 11,2 10.620084,2 10.271258,2.128564 9.96875,2.3125 9.2367617,1.502641 8.1776106,1 7,1 z"
       id="path3888" />
    <path
       inkscape:connector-curvature="0"
       style="color:#bebebe;display:inline;overflow:visible;visibility:visible;fill:#4285f4;fill-opacity:1;fill-rule:nonzero;stroke:none;stroke-width:2;marker:none"
       id="rect6718-3-3"
       d="m 5.875,6.9999996 c -0.49245,0 -0.875,0.38256 -0.875,0.875 V 14.125 C 5,14.61744 5.38255,15 5.875,15 h 6.25 C 12.61745,15 13,14.61744 13,14.125 V 7.8749996 c 0,-0.49244 -0.38255,-0.875 -0.875,-0.875 z m 2.125,1 H 9.9999996 V 12 H 8 Z M 8,13 h 1.9999996 v 1 H 8 Z"
       class="warning" />
  </g>
</svg>
